X:63
T:Dark-Haired Lass
Z: id:dc-reel-57
M:C
L:1/8
K:A Dorian
B|cAAB cdec|d2gd BGGB|cBAB cdec|dfec A3B|!
cAAB cdec|d2gd BGGB|cBAB cdeg|fdec A3:|!
B|cdef g2eg|f2df gfed|cdef g2eg|fdec A3B|!
cdef g2eg|f2df g2fg|afge fdec|dfec A3:|!

